ui/icon/svg/color-wand-sharp.svg

<svg viewBox="0 0 512 512" xmlns="http://www.w3.org/2000/svg"><path d="m133.441 200.647 67.197-67.196 78.142 78.142-67.196 67.196zm167.969 33.563-67.19 67.2 177.78 178.59 68-68zm-269.41-58.21h80v32h-80zm35.624-85.75 22.627-22.628 56.569 56.569-22.627 22.627zm108.376-58.25h32v80h-32zm61.32 92.195 56.569-56.569 22.627 22.627-56.569 56.569zm-169.7 169.692 56.569-56.569 22.627 22.627-56.569 56.569z"/></svg>

<svg xmlns="http://www.w3.org/2000/svg" class="ionicon" viewBox="0 0 512 512"><title>Color Wand</title><path d="M133.441 200.647l67.197-67.196 78.142 78.142-67.196 67.196zM301.41 234.21l-67.19 67.2L412 480l68-68-178.59-177.79zM32 176h80v32H32zM67.624 90.25l22.627-22.628 56.569 56.569-22.627 22.627zM176 32h32v80h-32zM237.32 124.195l56.569-56.569 22.627 22.627-56.569 56.569zM67.62 293.887l56.569-56.569 22.627 22.627-56.569 56.569z"/></svg>
